icons/glyphs/glyph-address-book.svg

<?xml version="1.0" encoding="UTF-8" standalone="no"?><svg height="16" viewBox="0 0 4.2333332 4.2333332" width="16" xmlns="http://www.w3.org/2000/svg"><sodipodi:namedview/><metadata><rdf:RDF><cc:Work><dc:format>image/svg+xml</dc:format><dc:type/><dc:title/></cc:Work></rdf:RDF></metadata><path d="m0 0v2.8242188h1.5839844v1.5683593h-1.5839844v2.8242188h1.5839844v1.5664062h-1.5839844v2.8242189h1.5839844v1.568359h-1.5839844v2.824219h15.105469c.495883 0 .894531-.398649.894531-.894531v-14.21093775c0-.49588288-.398648-.89453125-.894531-.89453125zm8.5488281 2.0488281a2.2116712 2.2116712 0 0 1 2.2109379 2.2109375 2.2116712 2.2116712 0 0 1 -2.009766 2.2011719c1.763828.0949145 3.371902 1.24485 4.244141 3.0761719v4.4082026h-8.8906254v-4.5058589c.8865574-1.7823738 2.4764052-2.8938317 4.2128906-2.9804687a2.2116712 2.2116712 0 0 1 -1.9804687-2.1992188 2.2116712 2.2116712 0 0 1 2.2128906-2.2109375z" fill="#d0d0d0" stroke-width="1.1" transform="scale(.26458333)"/></svg>

<?xml version="1.0" encoding="UTF-8" standalone="no"?>
<!-- Created with Inkscape (http://www.inkscape.org/) -->

<svg
   xmlns:dc="http://purl.org/dc/elements/1.1/"
   xmlns:cc="http://creativecommons.org/ns#"
   xmlns:rdf="http://www.w3.org/1999/02/22-rdf-syntax-ns#"
   xmlns:svg="http://www.w3.org/2000/svg"
   xmlns="http://www.w3.org/2000/svg"
   xmlns:sodipodi="http://sodipodi.sourceforge.net/DTD/sodipodi-0.dtd"
   xmlns:inkscape="http://www.inkscape.org/namespaces/inkscape"
   width="16"
   height="16"
   viewBox="0 0 4.2333332 4.2333332"
   version="1.1"
   id="svg8"
   inkscape:version="0.92+devel (305337db3c, 2017-08-09, custom)"
   sodipodi:docname="glyph-address-book.svg">
  <defs
     id="defs2">
    <style
       id="current-color-scheme">      .ColorScheme-Text {
        color:#d0d0d0;
        stop-color:#d0d0d0;
      }
      .ColorScheme-Background {
        color:#212121;
        stop-color:#212121;
      }
      .ColorScheme-Highlight {
        color:#0039a9;
        stop-color:#0039a9;
      }
      .ColorScheme-ViewText {
        color:#d0d0d0;
        stop-color:#d0d0d0;
      }
      .ColorScheme-ViewBackground {
        color:#19191b;
        stop-color:#19191b;
      }
      .ColorScheme-ViewHover {
        color:#005cc7;
        stop-color:#005cc7;
      }
      .ColorScheme-ViewFocus{
        color:#002466;
        stop-color:#002466;
      }
      .ColorScheme-ButtonText {
        color:#d0d0d0;
        stop-color:#d0d0d0;
      }
      .ColorScheme-ButtonBackground {
        color:#232323;
        stop-color:#232323;                             
      }                                                 
      .ColorScheme-ButtonHover {                        
        color:#005cc7;                                  
        stop-color:#005cc7;                             
      }                                                 
      .ColorScheme-ButtonFocus{                         
        color:#0039a9;                                  
        stop-color:#0039a9;                             
      }</style>
  </defs>
  <sodipodi:namedview
     id="base"
     pagecolor="#002466"
     bordercolor="#ffffff"
     borderopacity="0.38039216"
     inkscape:pageopacity="1"
     inkscape:pageshadow="2"
     inkscape:zoom="36.415999"
     inkscape:cx="10.05339"
     inkscape:cy="7.9162778"
     inkscape:document-units="px"
     inkscape:current-layer="svg8"
     inkscape:document-rotation="0"
     showgrid="false"
     inkscape:showpageshadow="false"
     borderlayer="true"
     inkscape:window-width="1920"
     inkscape:window-height="1027"
     inkscape:window-x="0"
     inkscape:window-y="24"
     inkscape:window-maximized="1"
     units="px"
     inkscape:snap-page="true"
     inkscape:snap-grids="false"
     inkscape:snap-to-guides="false"
     inkscape:object-paths="true" />
  <metadata
     id="metadata5">
    <rdf:RDF>
      <cc:Work
         rdf:about="">
        <dc:format>image/svg+xml</dc:format>
        <dc:type
           rdf:resource="http://purl.org/dc/dcmitype/StillImage" />
        <dc:title />
      </cc:Work>
    </rdf:RDF>
  </metadata>
  <path
     style="fill:#d0d0d0;stroke-width:1.10000002"
     d="M 0 0 L 0 2.8242188 L 1.5839844 2.8242188 L 1.5839844 4.3925781 L 0 4.3925781 L 0 7.2167969 L 1.5839844 7.2167969 L 1.5839844 8.7832031 L 0 8.7832031 L 0 11.607422 L 1.5839844 11.607422 L 1.5839844 13.175781 L 0 13.175781 L 0 16 L 15.105469 16 C 15.601352 16 16 15.601351 16 15.105469 L 16 0.89453125 C 16 0.39864837 15.601352 0 15.105469 0 L 0 0 z M 8.5488281 2.0488281 A 2.2116712 2.2116712 0 0 1 10.759766 4.2597656 A 2.2116712 2.2116712 0 0 1 8.75 6.4609375 C 10.513828 6.555852 12.121902 7.7057875 12.994141 9.5371094 L 12.994141 13.945312 L 4.1035156 13.945312 L 4.1035156 9.4394531 C 4.990073 7.6570793 6.5799208 6.5456214 8.3164062 6.4589844 A 2.2116712 2.2116712 0 0 1 6.3359375 4.2597656 A 2.2116712 2.2116712 0 0 1 8.5488281 2.0488281 z "
     transform="scale(0.26458333)"
     id="rect816" />
</svg>
